airbyte/airbyte-config/init/src/main/resources/icons/orb.svg

<svg width="256" height="256" viewBox="0 0 256 256" fill="none" xmlns="http://www.w3.org/2000/svg">
<g filter="url(#filter0_d)">
<rect x="25" y="25" width="206" height="206" rx="46" fill="#061D27"/>
</g>
<g filter="url(#filter1_dddddd)">
<path d="M80.862 167.824C79.9022 167.193 78.771 168.335 79.5166 169.208C90.1737 181.69 105.562 190.009 122.91 191.383C123.003 191.391 123.093 191.399 123.186 191.403C123.556 191.431 123.929 191.452 124.303 191.472C124.644 191.492 124.981 191.509 125.322 191.521C125.577 191.533 125.837 191.541 126.097 191.549C126.73 191.565 127.368 191.582 128.009 191.582C128.651 191.582 129.284 191.569 129.921 191.549C130.181 191.541 130.437 191.529 130.697 191.521C131.038 191.509 131.379 191.488 131.716 191.472C132.089 191.452 132.459 191.427 132.832 191.403C132.926 191.395 133.015 191.387 133.108 191.383C150.457 190.009 165.847 181.692 176.504 169.207C177.249 168.333 176.118 167.192 175.159 167.822C162.179 176.348 145.806 181.436 128.013 181.436C110.221 181.436 93.8433 176.349 80.862 167.824Z" fill="url(#paint0_linear)"/>
<path d="M80.862 167.824C79.9022 167.193 78.771 168.335 79.5166 169.208C90.1737 181.69 105.562 190.009 122.91 191.383C123.003 191.391 123.093 191.399 123.186 191.403C123.556 191.431 123.929 191.452 124.303 191.472C124.644 191.492 124.981 191.509 125.322 191.521C125.577 191.533 125.837 191.541 126.097 191.549C126.73 191.565 127.368 191.582 128.009 191.582C128.651 191.582 129.284 191.569 129.921 191.549C130.181 191.541 130.437 191.529 130.697 191.521C131.038 191.509 131.379 191.488 131.716 191.472C132.089 191.452 132.459 191.427 132.832 191.403C132.926 191.395 133.015 191.387 133.108 191.383C150.457 190.009 165.847 181.692 176.504 169.207C177.249 168.333 176.118 167.192 175.159 167.822C162.179 176.348 145.806 181.436 128.013 181.436C110.221 181.436 93.8433 176.349 80.862 167.824Z" fill="white"/>
<path d="M81.5935 101.048C90.4913 85.6405 103.082 74.0056 116.956 67.027C117.982 66.5111 117.559 64.9607 116.429 65.1697C100.289 68.1575 85.3913 77.3251 75.5281 91.6622C75.4753 91.7393 75.4226 91.8124 75.3698 91.8895C75.1587 92.1981 74.9557 92.5066 74.7527 92.8192C74.5659 93.1034 74.3832 93.3917 74.2006 93.6799C74.0625 93.8991 73.9245 94.1143 73.7865 94.3335C73.4536 94.8735 73.1247 95.4175 72.804 95.9737C72.4833 96.5258 72.1788 97.0861 71.8743 97.6423C71.7525 97.8696 71.6307 98.097 71.513 98.3284C71.3546 98.6288 71.2004 98.9333 71.0461 99.2378C70.8796 99.5707 70.7091 99.9036 70.5508 100.241C70.5102 100.322 70.4737 100.407 70.4331 100.488C62.948 116.199 62.4565 133.686 67.9375 149.156C68.321 150.239 69.8749 149.83 69.8089 148.684C68.9163 133.18 72.6955 116.46 81.5935 101.048Z" fill="url(#paint1_linear)"/>
<path d="M81.5935 101.048C90.4913 85.6405 103.082 74.0056 116.956 67.027C117.982 66.5111 117.559 64.9607 116.429 65.1697C100.289 68.1575 85.3913 77.3251 75.5281 91.6622C75.4753 91.7393 75.4226 91.8124 75.3698 91.8895C75.1587 92.1981 74.9557 92.5066 74.7527 92.8192C74.5659 93.1034 74.3832 93.3917 74.2006 93.6799C74.0625 93.8991 73.9245 94.1143 73.7865 94.3335C73.4536 94.8735 73.1247 95.4175 72.804 95.9737C72.4833 96.5258 72.1788 97.0861 71.8743 97.6423C71.7525 97.8696 71.6307 98.097 71.513 98.3284C71.3546 98.6288 71.2004 98.9333 71.0461 99.2378C70.8796 99.5707 70.7091 99.9036 70.5508 100.241C70.5102 100.322 70.4737 100.407 70.4331 100.488C62.948 116.199 62.4565 133.686 67.9375 149.156C68.321 150.239 69.8749 149.83 69.8089 148.684C68.9163 133.18 72.6955 116.46 81.5935 101.048Z" fill="white"/>
<path d="M185.577 100.488C185.537 100.407 185.5 100.321 185.459 100.24C185.297 99.9073 185.131 99.5704 184.964 99.2375C184.81 98.933 184.656 98.6325 184.497 98.3281C184.38 98.1007 184.258 97.8693 184.136 97.6419C183.835 97.0817 183.527 96.5255 183.206 95.9734C182.885 95.4212 182.557 94.8732 182.224 94.3332C182.09 94.114 181.948 93.8948 181.81 93.6796C181.627 93.3913 181.444 93.1072 181.258 92.8189C181.055 92.5063 180.847 92.1937 180.64 91.8892C180.588 91.8121 180.535 91.739 180.482 91.6619C170.619 77.3252 155.719 68.1578 139.581 65.1697C138.452 64.9606 138.029 66.5109 139.055 67.0269C152.929 74.0055 165.519 85.6403 174.413 101.048C183.311 116.46 187.09 133.18 186.197 148.683C186.131 149.83 187.685 150.238 188.069 149.156C193.551 133.686 193.062 116.198 185.577 100.488Z" fill="url(#paint2_linear)"/>
<path d="M185.577 100.488C185.537 100.407 185.5 100.321 185.459 100.24C185.297 99.9073 185.131 99.5704 184.964 99.2375C184.81 98.933 184.656 98.6325 184.497 98.3281C184.38 98.1007 184.258 97.8693 184.136 97.6419C183.835 97.0817 183.527 96.5255 183.206 95.9734C182.885 95.4212 182.557 94.8732 182.224 94.3332C182.09 94.114 181.948 93.8948 181.81 93.6796C181.627 93.3913 181.444 93.1072 181.258 92.8189C181.055 92.5063 180.847 92.1937 180.64 91.8892C180.588 91.8121 180.535 91.739 180.482 91.6619C170.619 77.3252 155.719 68.1578 139.581 65.1697C138.452 64.9606 138.029 66.5109 139.055 67.0269C152.929 74.0055 165.519 85.6403 174.413 101.048C183.311 116.46 187.09 133.18 186.197 148.683C186.131 149.83 187.685 150.238 188.069 149.156C193.551 133.686 193.062 116.198 185.577 100.488Z" fill="white"/>
</g>
<defs>
<filter id="filter0_d" x="19.5" y="22.25" width="217" height="217" filterUnits="userSpaceOnUse" color-interpolation-filters="sRGB">
<feFlood flood-opacity="0" result="BackgroundImageFix"/>
<feColorMatrix in="SourceAlpha" type="matrix" values="0 0 0 0 0 0 0 0 0 0 0 0 0 0 0 0 0 0 127 0" result="hardAlpha"/>
<feOffset dy="2.75"/>
<feGaussianBlur stdDeviation="2.75"/>
<feColorMatrix type="matrix" values="0 0 0 0 0 0 0 0 0 0 0 0 0 0 0 0 0 0 0.28 0"/>
<feBlend mode="normal" in2="BackgroundImageFix" result="effect1_dropShadow"/>
<feBlend mode="normal" in="SourceGraphic" in2="effect1_dropShadow" result="shape"/>
</filter>
<filter id="filter1_dddddd" x="43.0188" y="65.1504" width="169.971" height="173.63" filterUnits="userSpaceOnUse" color-interpolation-filters="sRGB">
<feFlood flood-opacity="0" result="BackgroundImageFix"/>
<feColorMatrix in="SourceAlpha" type="matrix" values="0 0 0 0 0 0 0 0 0 0 0 0 0 0 0 0 0 0 127 0" result="hardAlpha"/>
<feOffset dy="0.718364"/>
<feGaussianBlur stdDeviation="0.293876"/>
<feColorMatrix type="matrix" values="0 0 0 0 0 0 0 0 0 0 0 0 0 0 0 0 0 0 0.0253031 0"/>
<feBlend mode="normal" in2="BackgroundImageFix" result="effect1_dropShadow"/>
<feColorMatrix in="SourceAlpha" type="matrix" values="0 0 0 0 0 0 0 0 0 0 0 0 0 0 0 0 0 0 127 0" result="hardAlpha"/>
<feOffset dy="1.72633"/>
<feGaussianBlur stdDeviation="0.706225"/>
<feColorMatrix type="matrix" values="0 0 0 0 0 0 0 0 0 0 0 0 0 0 0 0 0 0 0.0363503 0"/>
<feBlend mode="normal" in2="effect1_dropShadow" result="effect2_dropShadow"/>
<feColorMatrix in="SourceAlpha" type="matrix" values="0 0 0 0 0 0 0 0 0 0 0 0 0 0 0 0 0 0 127 0" result="hardAlpha"/>
<feOffset dy="3.25052"/>
<feGaussianBlur stdDeviation="1.32976"/>
<feColorMatrix type="matrix" values="0 0 0 0 0 0 0 0 0 0 0 0 0 0 0 0 0 0 0.045 0"/>
<feBlend mode="normal" in2="effect2_dropShadow" result="effect3_dropShadow"/>
<feColorMatrix in="SourceAlpha" type="matrix" values="0 0 0 0 0 0 0 0 0 0 0 0 0 0 0 0 0 0 127 0" result="hardAlpha"/>
<feOffset dy="5.79838"/>
<feGaussianBlur stdDeviation="2.37206"/>
<feColorMatrix type="matrix" values="0 0 0 0 0 0 0 0 0 0 0 0 0 0 0 0 0 0 0.0536497 0"/>
<feBlend mode="normal" in2="effect3_dropShadow" result="effect4_dropShadow"/>
<feColorMatrix in="SourceAlpha" type="matrix" values="0 0 0 0 0 0 0 0 0 0 0 0 0 0 0 0 0 0 127 0" result="hardAlpha"/>
<feOffset dy="10.8452"/>
<feGaussianBlur stdDeviation="4.43668"/>
<feColorMatrix type="matrix" values="0 0 0 0 0 0 0 0 0 0 0 0 0 0 0 0 0 0 0.0646969 0"/>
<feBlend mode="normal" in2="effect4_dropShadow" result="effect5_dropShadow"/>
<feColorMatrix in="SourceAlpha" type="matrix" values="0 0 0 0 0 0 0 0 0 0 0 0 0 0 0 0 0 0 127 0" result="hardAlpha"/>
<feOffset dy="25.9594"/>
<feGaussianBlur stdDeviation="10.6198"/>
<feColorMatrix type="matrix" values="0 0 0 0 0 0 0 0 0 0 0 0 0 0 0 0 0 0 0.09 0"/>
<feBlend mode="normal" in2="effect5_dropShadow" result="effect6_dropShadow"/>
<feBlend mode="normal" in="SourceGraphic" in2="effect6_dropShadow" result="shape"/>
</filter>
<linearGradient id="paint0_linear" x1="128.004" y1="65.1504" x2="128.004" y2="191.582" gradientUnits="userSpaceOnUse">
<stop stop-color="white"/>
<stop offset="1" stop-color="white" stop-opacity="0"/>
</linearGradient>
<linearGradient id="paint1_linear" x1="128.004" y1="65.1504" x2="128.004" y2="191.582" gradientUnits="userSpaceOnUse">
<stop stop-color="white"/>
<stop offset="1" stop-color="white" stop-opacity="0"/>
</linearGradient>
<linearGradient id="paint2_linear" x1="128.004" y1="65.1504" x2="128.004" y2="191.582" gradientUnits="userSpaceOnUse">
<stop stop-color="white"/>
<stop offset="1" stop-color="white" stop-opacity="0"/>
</linearGradient>
</defs>
</svg>

<svg xmlns="http://www.w3.org/2000/svg" width="256" height="256" fill="none"><g filter="url(#a)"><rect width="206" height="206" x="25" y="25" fill="#061D27" rx="46"/></g><g filter="url(#b)"><path fill="url(#c)" d="M80.862 167.824c-.96-.631-2.091.511-1.345 1.384 10.657 12.482 26.045 20.801 43.393 22.175.093.008.183.016.276.02.37.028.743.049 1.117.069.341.02.678.037 1.019.049.255.012.515.02.775.028.633.016 1.271.033 1.912.033.642 0 1.275-.013 1.912-.033.26-.008.516-.02.776-.028.341-.012.682-.033 1.019-.049.373-.02.743-.045 1.116-.069.094-.008.183-.016.276-.02 17.349-1.374 32.739-9.691 43.396-22.176.745-.874-.386-2.015-1.345-1.385-12.98 8.526-29.353 13.614-47.146 13.614-17.792 0-34.17-5.087-47.151-13.612Z"/><path fill="#fff" d="M80.862 167.824c-.96-.631-2.091.511-1.345 1.384 10.657 12.482 26.045 20.801 43.393 22.175.093.008.183.016.276.02.37.028.743.049 1.117.069.341.02.678.037 1.019.049.255.012.515.02.775.028.633.016 1.271.033 1.912.033.642 0 1.275-.013 1.912-.033.26-.008.516-.02.776-.028.341-.012.682-.033 1.019-.049.373-.02.743-.045 1.116-.069.094-.008.183-.016.276-.02 17.349-1.374 32.739-9.691 43.396-22.176.745-.874-.386-2.015-1.345-1.385-12.98 8.526-29.353 13.614-47.146 13.614-17.792 0-34.17-5.087-47.151-13.612Z"/><path fill="url(#d)" d="M81.594 101.048c8.897-15.407 21.488-27.042 35.362-34.021 1.026-.516.603-2.066-.527-1.857-16.14 2.987-31.038 12.155-40.9 26.492l-.16.227a61.203 61.203 0 0 0-1.17 1.79c-.136.22-.275.435-.412.654a64.85 64.85 0 0 0-.983 1.64c-.32.553-.625 1.113-.93 1.67a36.19 36.19 0 0 0-.361.685c-.158.3-.313.605-.467.91-.166.333-.337.666-.495 1.003-.04.081-.077.166-.118.247-7.485 15.711-7.977 33.198-2.496 48.668.384 1.083 1.938.674 1.872-.472-.893-15.504 2.886-32.224 11.785-47.636Z"/><path fill="#fff" d="M81.594 101.048c8.897-15.407 21.488-27.042 35.362-34.021 1.026-.516.603-2.066-.527-1.857-16.14 2.987-31.038 12.155-40.9 26.492l-.16.227a61.203 61.203 0 0 0-1.17 1.79c-.136.22-.275.435-.412.654a64.85 64.85 0 0 0-.983 1.64c-.32.553-.625 1.113-.93 1.67a36.19 36.19 0 0 0-.361.685c-.158.3-.313.605-.467.91-.166.333-.337.666-.495 1.003-.04.081-.077.166-.118.247-7.485 15.711-7.977 33.198-2.496 48.668.384 1.083 1.938.674 1.872-.472-.893-15.504 2.886-32.224 11.785-47.636Z"/><path fill="url(#e)" d="M185.577 100.488c-.04-.081-.077-.167-.118-.248a77.527 77.527 0 0 0-1.323-2.598 56.804 56.804 0 0 0-.93-1.669c-.321-.552-.649-1.1-.982-1.64-.134-.219-.276-.438-.414-.653-.183-.289-.366-.573-.552-.861a53.157 53.157 0 0 0-.618-.93c-.052-.077-.105-.15-.158-.227-9.863-14.337-24.763-23.504-40.901-26.492-1.129-.21-1.552 1.34-.526 1.857 13.874 6.978 26.464 18.613 35.358 34.021 8.898 15.412 12.677 32.132 11.784 47.635-.066 1.147 1.488 1.555 1.872.473 5.482-15.47 4.993-32.958-2.492-48.668Z"/><path fill="#fff" d="M185.577 100.488c-.04-.081-.077-.167-.118-.248a77.527 77.527 0 0 0-1.323-2.598 56.804 56.804 0 0 0-.93-1.669c-.321-.552-.649-1.1-.982-1.64-.134-.219-.276-.438-.414-.653-.183-.289-.366-.573-.552-.861a53.157 53.157 0 0 0-.618-.93c-.052-.077-.105-.15-.158-.227-9.863-14.337-24.763-23.504-40.901-26.492-1.129-.21-1.552 1.34-.526 1.857 13.874 6.978 26.464 18.613 35.358 34.021 8.898 15.412 12.677 32.132 11.784 47.635-.066 1.147 1.488 1.555 1.872.473 5.482-15.47 4.993-32.958-2.492-48.668Z"/></g><defs><linearGradient id="c" x1="128.004" x2="128.004" y1="65.15" y2="191.582" gradientUnits="userSpaceOnUse"><stop stop-color="#fff"/><stop offset="1" stop-color="#fff" stop-opacity="0"/></linearGradient><linearGradient id="d" x1="128.004" x2="128.004" y1="65.15" y2="191.582" gradientUnits="userSpaceOnUse"><stop stop-color="#fff"/><stop offset="1" stop-color="#fff" stop-opacity="0"/></linearGradient><linearGradient id="e" x1="128.004" x2="128.004" y1="65.15" y2="191.582" gradientUnits="userSpaceOnUse"><stop stop-color="#fff"/><stop offset="1" stop-color="#fff" stop-opacity="0"/></linearGradient><filter id="a" width="217" height="217" x="19.5" y="22.25" color-interpolation-filters="sRGB" filterUnits="userSpaceOnUse"><feFlood flood-opacity="0" result="BackgroundImageFix"/><feColorMatrix in="SourceAlpha" result="hardAlpha" values="0 0 0 0 0 0 0 0 0 0 0 0 0 0 0 0 0 0 127 0"/><feOffset dy="2.75"/><feGaussianBlur stdDeviation="2.75"/><feColorMatrix values="0 0 0 0 0 0 0 0 0 0 0 0 0 0 0 0 0 0 0.28 0"/><feBlend in2="BackgroundImageFix" result="effect1_dropShadow"/><feBlend in="SourceGraphic" in2="effect1_dropShadow" result="shape"/></filter><filter id="b" width="169.971" height="173.63" x="43.019" y="65.15" color-interpolation-filters="sRGB" filterUnits="userSpaceOnUse"><feFlood flood-opacity="0" result="BackgroundImageFix"/><feColorMatrix in="SourceAlpha" result="hardAlpha" values="0 0 0 0 0 0 0 0 0 0 0 0 0 0 0 0 0 0 127 0"/><feOffset dy=".718"/><feGaussianBlur stdDeviation=".294"/><feColorMatrix values="0 0 0 0 0 0 0 0 0 0 0 0 0 0 0 0 0 0 0.0253031 0"/><feBlend in2="BackgroundImageFix" result="effect1_dropShadow"/><feColorMatrix in="SourceAlpha" result="hardAlpha" values="0 0 0 0 0 0 0 0 0 0 0 0 0 0 0 0 0 0 127 0"/><feOffset dy="1.726"/><feGaussianBlur stdDeviation=".706"/><feColorMatrix values="0 0 0 0 0 0 0 0 0 0 0 0 0 0 0 0 0 0 0.0363503 0"/><feBlend in2="effect1_dropShadow" result="effect2_dropShadow"/><feColorMatrix in="SourceAlpha" result="hardAlpha" values="0 0 0 0 0 0 0 0 0 0 0 0 0 0 0 0 0 0 127 0"/><feOffset dy="3.251"/><feGaussianBlur stdDeviation="1.33"/><feColorMatrix values="0 0 0 0 0 0 0 0 0 0 0 0 0 0 0 0 0 0 0.045 0"/><feBlend in2="effect2_dropShadow" result="effect3_dropShadow"/><feColorMatrix in="SourceAlpha" result="hardAlpha" values="0 0 0 0 0 0 0 0 0 0 0 0 0 0 0 0 0 0 127 0"/><feOffset dy="5.798"/><feGaussianBlur stdDeviation="2.372"/><feColorMatrix values="0 0 0 0 0 0 0 0 0 0 0 0 0 0 0 0 0 0 0.0536497 0"/><feBlend in2="effect3_dropShadow" result="effect4_dropShadow"/><feColorMatrix in="SourceAlpha" result="hardAlpha" values="0 0 0 0 0 0 0 0 0 0 0 0 0 0 0 0 0 0 127 0"/><feOffset dy="10.845"/><feGaussianBlur stdDeviation="4.437"/><feColorMatrix values="0 0 0 0 0 0 0 0 0 0 0 0 0 0 0 0 0 0 0.0646969 0"/><feBlend in2="effect4_dropShadow" result="effect5_dropShadow"/><feColorMatrix in="SourceAlpha" result="hardAlpha" values="0 0 0 0 0 0 0 0 0 0 0 0 0 0 0 0 0 0 127 0"/><feOffset dy="25.959"/><feGaussianBlur stdDeviation="10.62"/><feColorMatrix values="0 0 0 0 0 0 0 0 0 0 0 0 0 0 0 0 0 0 0.09 0"/><feBlend in2="effect5_dropShadow" result="effect6_dropShadow"/><feBlend in="SourceGraphic" in2="effect6_dropShadow" result="shape"/></filter></defs></svg>
